Origami/64x64/apps/multimedia-photo-manager.svg

<svg width="64" height="64" version="1" xmlns="http://www.w3.org/2000/svg">
 <path d="m4.0004 52.000037v1.999993s0 3.01199 2.9999899 2.99999l50.199832-0.199219c1.549995-6e-3 2.79999-1.247996 2.79999-2.799991v-1.999993c0 1.551195-1.249575 2.79479-2.80079 2.80079l-50.199832 0.2 50.187832-0.188c0.775597-3e-3 1.493895-0.307159 1.999993-0.812497-0.547798 0.599558-1.307615 0.999997-2.187593 0.999997h-49.999832c-2.9999899 0.012-2.9999899-2.99999-2.9999899-2.99999zm2.9999899 4.999983h49.999832c0.879878 0 1.639695-0.400439 2.187593-0.999997-0.506098 0.505339-1.224396 0.809498-1.999993 0.812498l-50.187832 0.187999z" style="opacity:.2"/>
 <path d="m7.0001899 8.0001876c-1.6619944 0-2.9999899 1.3379955-2.9999899 2.9999904v32.999889h55.999812v-32.999889c0-1.6619949-1.337995-2.9999904-2.99999-2.9999904h-49.999832zm52.187825 46.999842c-0.505998 0.505998-1.223996 0.809997-1.999993 0.811997l-50.187832 0.188h49.999832c0.879998 0 1.639995-0.399999 2.187993-0.999997z" style="fill:#ff766a"/>
 <path d="m7 8c-1.6619944 0-3 1.3380051-3 3v1c0-1.661995 1.3380056-3 3-3h50c1.661995 0 3 1.338005 3 3v-1c0-1.6619949-1.338005-3-3-3h-50z" style="fill:#ffffff;opacity:.2"/>
 <path d="m44.000066 19.000053c4.418185 0 7.999973 3.581788 7.999973 7.999974 0 4.418185-3.581788 7.999973-7.999973 7.999973s-7.999973-3.581788-7.999973-7.999973c0-4.418186 3.581788-7.999974 7.999973-7.999974z" style="fill-rule:evenodd;opacity:.2"/>
 <path d="m44.000066 18.000154c4.418185 0 7.999973 3.581788 7.999973 7.999973s-3.581788 7.999974-7.999973 7.999974-7.999973-3.581789-7.999973-7.999974 3.581788-7.999973 7.999973-7.999973z" style="fill-rule:evenodd;fill:#fffee4"/>
 <path d="m4.0004 44.000067v8.99997s0 3.01199 2.9999899 2.99999l50.199832-0.2c1.551195-6e-3 2.79999-1.248795 2.79999-2.79999v-8.99997z" style="fill:#d22f7a"/>
 <path d="m4.0004 44.000067v-1.599995s4.0383865-2.666591 5.1735827-2.89919c1.1353563-0.232639 2.4761913-0.0434 3.8541873 0.216799 1.377975 0.259199 3.435188 0.609758 4.077186 0.631678 0.642078 0.0224 1.803954-0.056 3.15399-0.137599 1.349995-0.08 3.585188-0.1536 4.282385-0.1456 0.697218 0 2.437792 0.096 4.292986 0.209259 1.855334 0.1136 4.403585 0.303379 4.981783 0.356479 0.578198 0.0528 1.257816 0.1504 2.029193 0.256819 0.771258 0.1056 2.106593 0.2651 2.578792 0.308959 0.472338 0.043 1.567434 0.1938 2.83799 0.310719 1.270596 0.1168 3.303989 0.1568 3.891187 0.1136 0.587218-0.0434 1.818054-0.478078 3.189789-0.878877 1.371636-0.400639 2.884191-0.767518 4.034587-0.676798 1.150456 0.091 7.622174 2.333592 7.622174 2.333592v1.599995h-49.199835z"/>
 <path d="m63.957999 46.894054a14.99995 14.99995 0 0 1 -14.95795 14.105953 14.99995 14.99995 0 0 1 -14.95795 -13.893954 14.99995 14.99995 0 0 0 -0.042 0.893997 14.99995 14.99995 0 0 0 14.99995 14.99995 14.99995 14.99995 0 0 0 14.99995 -14.99995 14.99995 14.99995 0 0 0 -0.042 -1.105996z" style="fill-rule:evenodd;opacity:.2"/>
 <circle cx="49" cy="47" r="15" style="fill-rule:evenodd;fill:#42a1cd"/>
 <path d="m46 39l-1 1h-3.46875c-1.530995 0-1.53125 1.5-1.53125 1.5v11c0 1.505988 1.53125 1.5 1.53125 1.5h14.96875c1.499995 0 1.5-1.5 1.5-1.5v-11c0-1.500007-1.5-1.5-1.5-1.5h-3.5l-1-1h-6zm3 3c2.761334 0 5 2.238571 5 5 0 2.76143-2.238666 5-5 5-2.761333 0-5-2.23857-5-5 0-2.761429 2.238667-5 5-5zm0 2c-1.656854 0-3 1.343237-3 3 0 1.656862 1.343146 3 3 3 1.656835 0 3-1.343199 3-3 0-1.656844-1.343165-3-3-3z" style="fill:#ffffff"/>
</svg>

<svg xmlns="http://www.w3.org/2000/svg" width="64" height="64" version="1">
 <path style="opacity:0.2" d="m 4.0004,52.000037 0,1.999993 c 0,0 0,3.01199 2.9999899,2.99999 L 57.200222,56.800801 c 1.549995,-0.006 2.79999,-1.247996 2.79999,-2.799991 l 0,-1.999993 c 0,1.551195 -1.249575,2.79479 -2.80079,2.80079 l -50.199832,0.2 50.187832,-0.188 c 0.775597,-0.003 1.493895,-0.307159 1.999993,-0.812497 -0.547798,0.599558 -1.307615,0.999997 -2.187593,0.999997 l -49.9998321,0 C 4,55.013107 4,52.001117 4,52.001117 Z m 2.9999899,4.999983 49.9998321,0 c 0.879878,0 1.639695,-0.400439 2.187593,-0.999997 -0.506098,0.505339 -1.224396,0.809498 -1.999993,0.812498 L 6.99999,57.00052 Z"/>
 <path style="fill:#ff766a" d="M 7.0001899,8.0001876 C 5.3381955,8.0001876 4.0002,9.3381831 4.0002,11.000178 l 0,32.999889 55.999812,0 0,-32.999889 c 0,-1.6619949 -1.337995,-2.9999904 -2.99999,-2.9999904 l -49.9998321,0 z M 59.188015,55.00003 c -0.505998,0.505998 -1.223996,0.809997 -1.999993,0.811997 l -50.1878321,0.188 49.9998321,0 c 0.879998,0 1.639995,-0.399999 2.187993,-0.999997 z"/>
 <path style="opacity:0.2;fill:#ffffff" d="M 7 8 C 5.3380056 8 4 9.3380051 4 11 L 4 12 C 4 10.338005 5.3380056 9 7 9 L 57 9 C 58.661995 9 60 10.338005 60 12 L 60 11 C 60 9.3380051 58.661995 8 57 8 L 7 8 z"/>
 <path style="opacity:0.2;fill-rule:evenodd" d="m 44.000066,19.000053 c 4.418185,0 7.999973,3.581788 7.999973,7.999974 0,4.418185 -3.581788,7.999973 -7.999973,7.999973 -4.418185,0 -7.999973,-3.581788 -7.999973,-7.999973 0,-4.418186 3.581788,-7.999974 7.999973,-7.999974 z"/>
 <path style="fill:#fffee4;fill-rule:evenodd" d="m 44.000066,18.000154 c 4.418185,0 7.999973,3.581788 7.999973,7.999973 0,4.418185 -3.581788,7.999974 -7.999973,7.999974 -4.418185,0 -7.999973,-3.581789 -7.999973,-7.999974 0,-4.418185 3.581788,-7.999973 7.999973,-7.999973 z"/>
 <path style="fill:#d22f7a" d="m 4.0004,44.000067 0,8.99997 c 0,0 0,3.01199 2.9999899,2.99999 l 50.1998321,-0.2 c 1.551195,-0.006 2.79999,-1.248795 2.79999,-2.79999 l 0,-8.99997 z"/>
 <path d="m 4.0004,44.000067 0,-1.599995 c 0,0 4.0383865,-2.666591 5.1735827,-2.89919 1.1353563,-0.232639 2.4761913,-0.0434 3.8541873,0.216799 1.377975,0.259199 3.435188,0.609758 4.077186,0.631678 0.642078,0.0224 1.803954,-0.056 3.15399,-0.137599 1.349995,-0.08 3.585188,-0.1536 4.282385,-0.1456 0.697218,0 2.437792,0.096 4.292986,0.209259 1.855334,0.1136 4.403585,0.303379 4.981783,0.356479 0.578198,0.0528 1.257816,0.1504 2.029193,0.256819 0.771258,0.1056 2.106593,0.2651 2.578792,0.308959 0.472338,0.043 1.567434,0.1938 2.83799,0.310719 1.270596,0.1168 3.303989,0.1568 3.891187,0.1136 0.587218,-0.0434 1.818054,-0.478078 3.189789,-0.878877 1.371636,-0.400639 2.884191,-0.767518 4.034587,-0.676798 1.150456,0.091 7.622174,2.333592 7.622174,2.333592 l 0,1.599995 -49.199835,0 z"/>
 <path style="opacity:0.2;fill-rule:evenodd" d="M 63.957999,46.894054 A 14.99995,14.99995 0 0 1 49.000049,61.000007 14.99995,14.99995 0 0 1 34.042099,47.106053 14.99995,14.99995 0 0 0 34.000099,48.00005 14.99995,14.99995 0 0 0 49.000049,63 a 14.99995,14.99995 0 0 0 14.99995,-14.99995 14.99995,14.99995 0 0 0 -0.042,-1.105996 z"/>
 <circle style="fill:#42a1cd;fill-rule:evenodd" cx="49" cy="47" r="15"/>
 <path style="fill:#ffffff" d="M 46 39 L 45 40 L 41.53125 40 C 40.000255 40 40 41.5 40 41.5 L 40 52.5 C 40 54.005988 41.53125 54 41.53125 54 L 56.5 54 C 57.999995 54 58 52.5 58 52.5 L 58 41.5 C 58 39.999993 56.5 40 56.5 40 L 53 40 L 52 39 L 46 39 z M 49 42 C 51.761334 42 54 44.238571 54 47 C 54 49.76143 51.761334 52 49 52 C 46.238667 52 44 49.76143 44 47 C 44 44.238571 46.238667 42 49 42 z M 49 44 C 47.343146 44 46 45.343237 46 47 C 46 48.656862 47.343146 50 49 50 C 50.656835 50 52 48.656801 52 47 C 52 45.343156 50.656835 44 49 44 z"/>
</svg>
